X:1
T:Zwei Deutsche Tänze
T:Zwei Deutsche Tänze
T:Komponiert in April 1825
T:Franz Schubert
C:Franz Schubert
%%score { ( 1 3 ) | ( 2 4 ) }
L:1/8
Q:1/4=70
M:3/4
K:F
V:1 treble nm="Piano" snm="Pno."
V:3 treble 
V:2 bass 
V:4 bass 
V:1
!pp! (!2!!4![FA]>[Ec] | [DB]4) ([EG]>[DB] | [CA]4) [DF]>[CA] | AGGAG_B | [CFA]4 ([FA]>[Ec] | %5
 [DB]4) ([EG]>[DB] | [CA]4) [DF]>[CA] | AGGAGA | [A,F]4 ::!pp! ([Ac]>[Gf] | [FA]4) ([FA]>[Ed] | %11
 [DF]4) [DF]>A | (!>!cB) B2 B2 | A4!mf! [^FA]>[Dd] | [=C^F]4 A>d | [=B,=FG]4 G>d | (dc) A2 G2 | %17
 [A,F]4 :| %18
V:2
 z2 | z2 [F,,F,]4- | [F,,F,]2 [F,,F,]4- | [F,,F,]2 [D,,D,]2 [C,,C,]2 | [F,,F,]4 z2 | z2 [F,,F,]4- | %6
 [F,,F,]2 [F,,F,]4- | [F,,F,]2 [D,,D,]2 [C,,C,]2 | [F,,C,]4 :: z2 | z2 [F,C]4 | z2 [D,A,]4 | %12
 z2 [G,,D,F,]2 [G,,D,F,]2 | ([D,F,]2 [^C,E,]) z z2 | z2 [D,A,]4 | z2 [G,,D,]4 | A,,2 C,2 [C,,C,]2 | %17
 [F,,C,]4 :| %18
V:3
 x2 | x6 | x6 | =B,2 B,2 [_B,E]2 | x6 | x6 | x6 | =B,2 B,2 [_B,E]2 | x4 :: x2 | x6 | x6 | %12
 [DF]2 [DF]2 [DF]2 | ([DF]2 [^CE]) z x2 | x4 [C^F]2 | x4 [=B,F]2 | [CF]2 [CF]2 [B,E]2 | x4 :| %18
V:4
 x2 | x6 | x6 | x6 | x6 | x6 | x6 | x6 | x4 :: x2 | x6 | x6 | x6 | A,,4 x2 | x6 | x6 | x6 | x4 :| %18

